!!!!SEGMENT: pl-kozmzk--mzk-m-159--045_walczynski-franciszek--praeludia-organi-op-5-moderato.krn
!!!cenid: 18xx:2788
!!!COM: Walczyński, Franciszek
!!!COM-rismID: pe30021989
!!!CDT: ~1852-1937
!!!CNT: Polish
!!!GTL: Praeludia organi op. 5
!!!OTL: 45. Moderato
!!!PDT: 1894
!!!AGN: Secular; Prelude
!!!SMS-siglum: PL-KOZmzk
!!!SMS-shelfmark: mzk/m/159
!!!SMS-shelfwork: 045 G
!!!SMS-variant:
!!!SMS-altvar:
!!!NIFC-rismSourceID: 1001084394
!!!NIFC-rismChildID: 1001118860
!!!NIFC-islandoraID: pl-kozmzk:2265
!!!URL-pdf-islandora: https://repozytorium.nifc.pl/islandora/object/pl-kozmzk%3A2265/datastream/PDF/view
!!!URL-scan: https://polish.musicsources.pl/pl/lokalizacje/galeria/druki-muzyczne/7406 @EN{Scan on Polish Music Sources Website} @PL{Skany w portalu Dziedzictwo Muzyki Polskiej w otwartym dostępie}
!!!ONB-nifc: UWAGA: numeracja plików zgodna z numeracją źrodłową
!!!OMD: 45. Moderato.
!!!AIN: 1 empty 1 organ
!!!key:
**kern	**kern	**dynam
*part2	*part1	*part1
*staff2	*staff1	*
*Iorgan	*Iempty	*
*I"[Organo]	*	*
*clefF4	*clefG2	*
*k[b-e-a-]	*k[b-e-a-]	*
*c:	*c:	*
*M6/8	*M6/8	*
=1	=1	=1
*^	*^	*
!	!	!	!	!LO:DY:rj
(2.c/	2.r	(8g/L	(2.e-\	pp
.	.	8a-/	.	.
.	.	8g/J	.	.
.	.	4f#X/	.	.
.	.	8g/	.	.
=2	=2	=2	=2	=2
2.Bn/)	2.r	4.a-^/	2.d\)	.
.	.	4.g/)	.	.
=3	=3	=3	=3	=3
([2.B-X/	2.r	(4.g/	(2.d\	.
.	.	4f/	.	.
.	.	8en/	.	.
=4	=4	=4	=4	=4
8B-/L]	2.r	2.f/)	2.c\)	.
8A-/	.	.	.	.
8G/J	.	.	.	.
4.A-/)	.	.	.	.
=5	=5	=5	=5	=5
*	*	*	*	*^
!	!	!	!	!LO:DY:b=2	!
4.A-/	(8FF\L	(4.d/	([2.c\	fp	fp
.	8GG\	.	.	.	.
.	8AA-\J	.	.	.	.
4.An/	4.FF#X\)	4e-/	.	.	.
.	.	8d/	.	.	.
*	*	*	*	*v	*v
=6	=6	=6	=6	=6
2.G/	2.GG;\	2.d;/)	8c\L]	.
.	.	.	8Bn\	.
.	.	.	8An\J	.
.	.	.	4.B\)	.
=7	=7	=7	=7	=7
!LO:TX:b:i:t=Ped.	!	!	!	!LO:DY:b=2
2.r	(8GG\L	2.rg	2.r	pp
.	8AA-X\	.	.	.
.	8GG\J	.	.	.
.	4FF#X\	.	.	.
.	8GG\)	.	.	.
!!LO:LB:g=original
=8	=8	=8	=8	=8
!	!	!	!	!LO:DY:rj
(8c/L	2.GG\	([4.ee-/	4.f#X\	fp
8d/	.	.	.	.
8c/J	.	.	.	.
4.Bn/	.	4ee-/]	4.fn\	.
.	.	8dd/	.	.
=9	=9	=9	=9	=9
8c/L	2.AA-\	2.cc/)	2.e-\	.
8d/	.	.	.	.
8c/J	.	.	.	.
4Bn/	.	.	.	.
8c/)	.	.	.	.
=10	=10	=10	=10	=10
!	!	!LO:TX:t=P:problem=pf się nie wyświetla	!	!
8A-/L	2.BB-X\	(8cc/L	2.d\	pf
8G/	.	8b-X/	.	.
8F#X/J	.	8an/J	.	.
[4.A-/	.	4cc/	.	.
.	.	[8b-/)	.	.
=11	=11	=11	=11	=11
2.A-/]	(4.F\	(8b-/L]	2.c\	p
.	.	8a-X/	.	.
.	.	8g/J	.	.
.	8En\L	4b-/	.	.
.	8F\	.	.	.
.	8FF\J)	8a-/)	.	.
=12	=12	=12	=12	=12
!	!	!LO:TX:t=P:problem=pf się nie wyświetla	!	!
(8E-/L	2.GG\	(8g/L	8g\L	pf
8D/	.	8f#X/	8f#\	.
8E-/J	.	8g/J	[8g\J	.
8G/L	.	4ee-/	8g\L]	.
8An/	.	.	8f#X\	.
8Bn/J)	.	[8dd/)	[8fn\J	.
=13	=13	=13	=13	=13
([4.G/	[2.C\	(8dd/L]	8f\L]	.
.	.	8cc/	8e-\	.
.	.	8bn/J	8d\J	.
8G/L]	.	[4.cc/)	4.e-\	.
8F/	.	.	.	.
8E-/J)	.	.	.	.
=14	=14	=14	=14	=14
(8A-/L	2.C\_	2.cc/_	4.d\	p
!	!	!LO:TX:b:i:t=rit	!	!
8G/	.	.	.	.
8A-/J	.	.	.	.
8F/L	.	.	8a-\L	.
8G/	.	.	8g\	.
8A-/J	.	.	8f\J	.
=15	=15	=15	=15	=15
2.G/)	2.C;\]	2.cc;/]	2.en\	.
*v	*v	*	*	*
*	*v	*v	*
==	==	==
*-	*-	*-
!!!system-decoration: {(s1,s2)}
!!!EED: Andrzej Borzym
!!!EEV: 2021-08-08
!!!ENC: Krzysztof Stępień
!!!END: 2021-07-26
!!!YEC: Copyright 2022 Narodowy Instytut Fryderyka Chopina (https://polishscores.org)
!!!YEM: License CC-BY-4.0 (https://creativecommons.org/licenses/by/4.0)
